Avidclan_Website/assets/images/icons/interactive-ic.svg

<?xml version="1.0" encoding="utf-8"?>
<!-- Generator: Adobe Illustrator 24.1.1, SVG Export Plug-In . SVG Version: 6.00 Build 0)  -->
<svg version="1.1" id="Layer_1" xmlns="http://www.w3.org/2000/svg" xmlns:xlink="http://www.w3.org/1999/xlink" x="0px" y="0px"
	 viewBox="0 0 388.3 449.9" style="enable-background:new 0 0 388.3 449.9;" xml:space="preserve">
<style type="text/css">
	.st0{fill:#007AFB;}
</style>
<g>
	<path class="st0" d="M388.3,309.7c0-25.6-20.8-46.4-46.4-46.4c-8.1,0-15.6,1.9-22.7,5.7c-8.1-14.7-23.2-25.1-41.2-25.1
		c-8.1,0-15.6,1.9-22.7,5.7c-8.1-14.7-23.2-25.1-41.2-25.1c-6.2,0-11.8,0.9-17.1,3.3l0-90.9c0-12.3-4.7-24.2-13.7-33.2
		c-9-9-20.8-14.2-33.2-13.7c-25.6,0-46.4,20.8-46.4,46.9v208.9L80.5,323c-16.1-15.6-41.2-18-59.7-5.7C10,324.9,2.4,336.7,0.5,349.5
		c-1.9,13.3,1.9,26.5,10.4,36.9l48.8,57.8c2.8,3.3,7.1,5.2,11.4,5.2c3.3,0,6.6-0.9,9.5-3.3c6.2-5.2,7.1-14.7,1.9-20.8L33.6,368
		c-3.3-3.8-4.7-9-3.8-13.7c0.9-5.2,3.3-9.5,7.6-12.3c7.1-4.7,16.6-3.8,22.3,1.9l35,35c6.2,6.2,15.6,8.1,24.2,4.7
		s13.7-11.4,13.7-20.4V136.9c0-9.5,7.6-17.1,17.1-17.1c4.7,0,9,1.9,12.3,5.2c3.3,3.3,5.2,7.6,5.2,12.3v155.8
		c0,8.1,6.6,14.7,14.7,14.7c8.1,0,14.7-6.6,14.7-14.7v-21.3c0-9.5,7.6-17.1,17.1-17.1s17.1,7.6,17.1,17.1v40.3
		c0,8.1,6.6,14.7,14.7,14.7c8.1,0,14.7-6.6,14.7-14.7v-21.3c0-9.5,7.6-17.1,17.1-17.1c9.5,0,17.1,7.6,17.1,17.1V331
		c0,8.1,6.6,14.7,14.7,14.7s14.7-6.6,14.7-14.7v-19.9v-1.4c0-9.5,7.6-17.1,17.1-17.1s17.1,7.6,17.1,17.1v125.5
		c0,8.1,6.6,14.7,14.7,14.7s14.7-6.6,14.7-14.7L388.3,309.7z"/>
	<path class="st0" d="M149.2,69.1c8.1,0,14.7-6.6,14.7-14.7V14.7c0-8.1-6.6-14.7-14.7-14.7s-14.7,6.6-14.7,14.7v39.8
		C134.5,62.5,141.1,69.1,149.2,69.1z"/>
	<path class="st0" d="M81,88.6c2.8,2.8,6.6,4.3,10.4,4.3s7.6-1.4,10.4-4.3c5.7-5.7,5.7-15.2,0-20.8L73.9,39.8
		c-5.7-5.7-15.2-5.7-20.8,0c-5.7,5.7-5.7,15.2,0,20.8L81,88.6z"/>
	<path class="st0" d="M27.9,150.6h39.8c8.1,0,14.7-6.6,14.7-14.7s-6.6-14.7-14.7-14.7H27.9c-8.1,0-14.7,6.6-14.7,14.7
		S19.9,150.6,27.9,150.6L27.9,150.6z"/>
	<path class="st0" d="M216,135.9c0,8.1,6.6,14.7,14.7,14.7h39.8c8.1,0,14.7-6.6,14.7-14.7s-6.6-14.7-14.7-14.7h-39.8
		C222.6,121.2,216,127.9,216,135.9z"/>
	<path class="st0" d="M207,92.8c3.8,0,7.6-1.4,10.4-4.3l27.9-27.9c5.7-5.7,5.7-15.2,0-20.8c-5.7-5.7-15.2-5.7-20.8,0l-27.9,27.9
		c-5.7,5.7-5.7,15.2,0,20.8C199.4,91.4,203.2,92.8,207,92.8z"/>
</g>
</svg>

<svg width="389" height="450" viewBox="0 0 389 450" fill="none" xmlns="http://www.w3.org/2000/svg">
<g clip-path="url(#clip0_493_434)">
<path d="M388.3 309.7C388.3 284.1 367.5 263.3 341.9 263.3C333.8 263.3 326.3 265.2 319.2 269C311.1 254.3 296 243.9 278 243.9C269.9 243.9 262.4 245.8 255.3 249.6C247.2 234.9 232.1 224.5 214.1 224.5C207.9 224.5 202.3 225.4 197 227.8V136.9C197 124.6 192.3 112.7 183.3 103.7C174.3 94.7 162.5 89.5 150.1 90C124.5 90 103.7 110.8 103.7 136.9V345.8L80.5 323C64.4 307.4 39.3 305 20.8 317.3C10 324.9 2.4 336.7 0.499998 349.5C-1.4 362.8 2.4 376 10.9 386.4L59.7 444.2C62.5 447.5 66.8 449.4 71.1 449.4C74.4 449.4 77.7 448.5 80.6 446.1C86.8 440.9 87.7 431.4 82.5 425.3L33.6 368C30.3 364.2 28.9 359 29.8 354.3C30.7 349.1 33.1 344.8 37.4 342C44.5 337.3 54 338.2 59.7 343.9L94.7 378.9C100.9 385.1 110.3 387 118.9 383.6C127.5 380.2 132.6 372.2 132.6 363.2V136.9C132.6 127.4 140.2 119.8 149.7 119.8C154.4 119.8 158.7 121.7 162 125C165.3 128.3 167.2 132.6 167.2 137.3V293.1C167.2 301.2 173.8 307.8 181.9 307.8C190 307.8 196.6 301.2 196.6 293.1V271.8C196.6 262.3 204.2 254.7 213.7 254.7C223.2 254.7 230.8 262.3 230.8 271.8V312.1C230.8 320.2 237.4 326.8 245.5 326.8C253.6 326.8 260.2 320.2 260.2 312.1V290.8C260.2 281.3 267.8 273.7 277.3 273.7C286.8 273.7 294.4 281.3 294.4 290.8V331C294.4 339.1 301 345.7 309.1 345.7C317.2 345.7 323.8 339.1 323.8 331V311.1V309.7C323.8 300.2 331.4 292.6 340.9 292.6C350.4 292.6 358 300.2 358 309.7V435.2C358 443.3 364.6 449.9 372.7 449.9C380.8 449.9 387.4 443.3 387.4 435.2L388.3 309.7Z" fill="#0E53BE"/>
<path d="M149.2 69.1C157.3 69.1 163.9 62.5 163.9 54.4V14.7C163.9 6.6 157.3 0 149.2 0C141.1 0 134.5 6.6 134.5 14.7V54.5C134.5 62.5 141.1 69.1 149.2 69.1Z" fill="#0E53BE"/>
<path d="M81 88.6C83.8 91.4 87.6 92.9 91.4 92.9C95.2 92.9 99 91.5 101.8 88.6C107.5 82.9 107.5 73.4 101.8 67.8L73.9 39.8C68.2 34.1 58.7 34.1 53.1 39.8C47.4 45.5 47.4 55 53.1 60.6L81 88.6Z" fill="#0E53BE"/>
<path d="M27.9 150.6H67.6999C75.7999 150.6 82.4 144 82.4 135.9C82.4 127.8 75.7999 121.2 67.6999 121.2H27.9C19.8 121.2 13.2 127.8 13.2 135.9C13.2 144 19.9 150.6 27.9 150.6Z" fill="#0E53BE"/>
<path d="M216 135.9C216 144 222.6 150.6 230.7 150.6H270.5C278.6 150.6 285.2 144 285.2 135.9C285.2 127.8 278.6 121.2 270.5 121.2H230.7C222.6 121.2 216 127.9 216 135.9Z" fill="#0E53BE"/>
<path d="M207 92.8C210.8 92.8 214.6 91.4 217.4 88.5L245.3 60.6C251 54.9 251 45.4 245.3 39.8C239.6 34.1 230.1 34.1 224.5 39.8L196.6 67.7C190.9 73.4 190.9 82.9 196.6 88.5C199.4 91.4 203.2 92.8 207 92.8Z" fill="#0E53BE"/>
</g>
<defs>
<clipPath id="clip0_493_434">
<rect width="388.3" height="449.9" fill="white"/>
</clipPath>
</defs>
</svg>
